svg/emoticon_excited.svg

<svg xmlns="http://www.w3.org/2000/svg" viewBox="0 0 24 24"><path d="M12 2C6.47 2 2 6.47 2 12s4.47 10 10 10a10 10 0 0 0 10-10c0-5.53-4.5-10-10-10M8.88 7.82 11 9.94 9.94 11 8.88 9.94 7.82 11 6.76 9.94zM12 17.5c-2.33 0-4.31-1.46-5.11-3.5h10.22c-.8 2.04-2.78 3.5-5.11 3.5m4.18-6.5-1.06-1.06L14.06 11 13 9.94l2.12-2.12 2.12 2.12z"/></svg>

<?xml version="1.0" encoding="UTF-8"?><!DOCTYPE svg PUBLIC "-//W3C//DTD SVG 1.1//EN" "http://www.w3.org/Graphics/SVG/1.1/DTD/svg11.dtd"><svg xmlns="http://www.w3.org/2000/svg" xmlns:xlink="http://www.w3.org/1999/xlink" version="1.1" id="mdi-emoticon-excited" width="24" height="24" viewBox="0 0 24 24"><path d="M12,2C6.47,2 2,6.47 2,12C2,17.53 6.47,22 12,22A10,10 0 0,0 22,12C22,6.47 17.5,2 12,2M8.88,7.82L11,9.94L9.94,11L8.88,9.94L7.82,11L6.76,9.94L8.88,7.82M12,17.5C9.67,17.5 7.69,16.04 6.89,14H17.11C16.31,16.04 14.33,17.5 12,17.5M16.18,11L15.12,9.94L14.06,11L13,9.94L15.12,7.82L17.24,9.94L16.18,11Z" /></svg>
